X: 2
T: O'Rourke's
R: reel
M: 4/4
L: 1/8
K: Amix
|:ed|cAAe fded| cAeA dfed| cAAe fd (3Bcd| fage d2:|g2fg ~e3f|gfed eaaf|gefd ed (3Bcd|fage d2ef|g2fg ~e3f|gfed ea~a2|bgaf gfed|eaag aged||


Tune 90	Setting 23464

